tenants/businesswise/icons/channel_instagram.svg

<svg fill="none" height="32" viewBox="0 0 32 32" width="32" xmlns="http://www.w3.org/2000/svg" xmlns:xlink="http://www.w3.org/1999/xlink"><clipPath id="a"><path d="m0 0h32v32h-32z"/></clipPath><g clip-path="url(#a)" clip-rule="evenodd" fill="#000" fill-rule="evenodd"><path d="m16 1.88235c-7.79696 0-14.11765 6.32069-14.11765 14.11765 0 7.797 6.32069 14.1176 14.11765 14.1176 7.797 0 14.1176-6.3206 14.1176-14.1176 0-7.79696-6.3206-14.11765-14.1176-14.11765zm-16 14.11765c0-8.83656 7.16344-16 16-16 8.8366 0 16 7.16344 16 16 0 8.8366-7.1634 16-16 16-8.83656 0-16-7.1634-16-16z"/><path d="m16 9.12913c2.2378 0 2.5028.00852 3.3866.04884.8171.0373 1.2609.17383 1.5562.28857.3912.15204.6704.33368.9637.62696.2932.2932.4749.5725.6269.9636.1148.2954.2513.7391.2886 1.5563.0403.8837.0488 1.1488.0488 3.3866s-.0085 2.5029-.0488 3.3866c-.0373.8171-.1738 1.2609-.2886 1.5563-.152.3911-.3337.6703-.6269.9636-.2933.2933-.5725.4749-.9637.6269-.2953.1148-.7391.2513-1.5562.2886-.8836.0403-1.1487.0488-3.3866.0488-2.238 0-2.503-.0085-3.3866-.0488-.8172-.0373-1.2609-.1738-1.5563-.2886-.3912-.152-.6704-.3336-.9637-.6269-.29321-.2933-.47485-.5725-.62686-.9636-.11477-.2954-.25131-.7392-.2886-1.5563-.04032-.8837-.04884-1.1488-.04884-3.3866s.00852-2.5029.04884-3.3866c.03729-.8172.17383-1.2609.2886-1.5563.15201-.3911.33365-.6704.62686-.9636.2933-.29328.5725-.47492.9637-.62696.2954-.11474.7391-.25127 1.5562-.28857.8838-.04032 1.1488-.04884 3.3867-.04884zm.835-1.5095c1.5314.00265 1.8498.01467 2.6204.04983.8921.04072 1.5013.18237 2.0344.38957.5511.21418 1.0185.50075 1.4844.96667.466.46592.7525.93331.9667 1.4844.2072.5332.3489 1.1424.3896 2.0345.0352.7705.0472 1.0889.0498 2.6203l.0006.6066v.2285.2285l-.0006.6065c-.0026 1.5314-.0146 1.8498-.0498 2.6204-.0407.8921-.1824 1.5013-.3896 2.0345-.2142.5511-.5007 1.0185-.9667 1.4844-.4659.4659-.9333.7525-1.4844.9667-.5331.2071-1.1423.3488-2.0344.3895-.7706.0352-1.089.0472-2.6204.0498l-.6066.0006h-.2284c-.0785 0-.1546 0-.2285 0l-.6066-.0006c-1.5314-.0026-1.8498-.0146-2.6204-.0498-.8921-.0407-1.5013-.1824-2.0344-.3895-.55112-.2142-1.01851-.5008-1.48443-.9667s-.75249-.9334-.96667-1.4844c-.2072-.5332-.34885-1.1424-.38958-2.0345-.03516-.7706-.04715-1.089-.04979-2.6204v-1.6701c.00264-1.5314.01463-1.8498.04979-2.6203.04073-.8921.18238-1.5013.38958-2.0345.21418-.55109.50075-1.01848.96667-1.4844s.93331-.75249 1.48443-.96667c.5331-.2072 1.1423-.34885 2.0344-.38957.7706-.03516 1.089-.04718 2.6204-.04983zm-.8184 4.09007c-2.3786 0-4.3069 1.9283-4.3069 4.3069s1.9283 4.3069 4.3069 4.3069 4.3069-1.9283 4.3069-4.3069-1.9283-4.3069-4.3069-4.3069zm0 1.5112c1.544 0 2.7957 1.2517 2.7957 2.7957s-1.2517 2.7957-2.7957 2.7957-2.7957-1.2517-2.7957-2.7957 1.2517-2.7957 2.7957-2.7957zm4.4399-2.7085c-.551 0-.9977.4467-.9977.9978 0 .551.4467.9977.9977.9977.5511 0 .9977-.4467.9977-.9977 0-.5511-.4466-.9978-.9977-.9978z"/></g></svg>

<svg width="32" height="32" viewBox="0 0 32 32" fill="none" xmlns="http://www.w3.org/2000/svg">
<g clip-path="url(#clip0_2137_28194)">
<path fill-rule="evenodd" clip-rule="evenodd" d="M16 1.88235C8.20304 1.88235 1.88235 8.20304 1.88235 16C1.88235 23.797 8.20304 30.1176 16 30.1176C23.797 30.1176 30.1176 23.797 30.1176 16C30.1176 8.20304 23.797 1.88235 16 1.88235ZM0 16C0 7.16344 7.16344 0 16 0C24.8366 0 32 7.16344 32 16C32 24.8366 24.8366 32 16 32C7.16344 32 0 24.8366 0 16Z" fill="black"/>
<path fill-rule="evenodd" clip-rule="evenodd" d="M16 9.12913C18.2378 9.12913 18.5028 9.13765 19.3866 9.17797C20.2037 9.21527 20.6475 9.3518 20.9428 9.46654C21.334 9.61858 21.6132 9.80022 21.9065 10.0935C22.1997 10.3867 22.3814 10.666 22.5334 11.0571C22.6482 11.3525 22.7847 11.7962 22.822 12.6134C22.8623 13.4971 22.8708 13.7622 22.8708 16C22.8708 18.2378 22.8623 18.5029 22.822 19.3866C22.7847 20.2037 22.6482 20.6475 22.5334 20.9429C22.3814 21.334 22.1997 21.6132 21.9065 21.9065C21.6132 22.1998 21.334 22.3814 20.9428 22.5334C20.6475 22.6482 20.2037 22.7847 19.3866 22.822C18.503 22.8623 18.2379 22.8708 16 22.8708C13.762 22.8708 13.497 22.8623 12.6134 22.822C11.7962 22.7847 11.3525 22.6482 11.0571 22.5334C10.6659 22.3814 10.3867 22.1998 10.0934 21.9065C9.80019 21.6132 9.61855 21.334 9.46654 20.9429C9.35177 20.6475 9.21523 20.2037 9.17794 19.3866C9.13762 18.5029 9.1291 18.2378 9.1291 16C9.1291 13.7622 9.13762 13.4971 9.17794 12.6134C9.21523 11.7962 9.35177 11.3525 9.46654 11.0571C9.61855 10.666 9.80019 10.3867 10.0934 10.0935C10.3867 9.80022 10.6659 9.61858 11.0571 9.46654C11.3525 9.3518 11.7962 9.21527 12.6133 9.17797C13.4971 9.13765 13.7621 9.12913 16 9.12913ZM16.835 7.61963C18.3664 7.62228 18.6848 7.6343 19.4554 7.66946C20.3475 7.71018 20.9567 7.85183 21.4898 8.05903C22.0409 8.27321 22.5083 8.55978 22.9742 9.0257C23.4402 9.49162 23.7267 9.95901 23.9409 10.5101C24.1481 11.0433 24.2898 11.6525 24.3305 12.5446C24.3657 13.3151 24.3777 13.6335 24.3803 15.1649L24.3809 15.7715L24.3809 16C24.3809 16.0785 24.3809 16.1546 24.3809 16.2285L24.3803 16.835C24.3777 18.3664 24.3657 18.6848 24.3305 19.4554C24.2898 20.3475 24.1481 20.9567 23.9409 21.4899C23.7267 22.041 23.4402 22.5084 22.9742 22.9743C22.5083 23.4402 22.0409 23.7268 21.4898 23.941C20.9567 24.1481 20.3475 24.2898 19.4554 24.3305C18.6848 24.3657 18.3664 24.3777 16.835 24.3803L16.2284 24.3809L16 24.3809C15.9215 24.3809 15.8454 24.3809 15.7715 24.3809L15.1649 24.3803C13.6335 24.3777 13.3151 24.3657 12.5445 24.3305C11.6524 24.2898 11.0432 24.1481 10.5101 23.941C9.95898 23.7268 9.49159 23.4402 9.02567 22.9743C8.55975 22.5084 8.27318 22.0409 8.059 21.4899C7.8518 20.9567 7.71015 20.3475 7.66942 19.4554C7.63426 18.6848 7.62227 18.3664 7.61963 16.835V15.1649C7.62227 13.6335 7.63426 13.3151 7.66942 12.5446C7.71015 11.6525 7.8518 11.0433 8.059 10.5101C8.27318 9.95901 8.55975 9.49162 9.02567 9.0257C9.49159 8.55978 9.95898 8.27321 10.5101 8.05903C11.0432 7.85183 11.6524 7.71018 12.5445 7.66946C13.3151 7.6343 13.6335 7.62228 15.1649 7.61963H16.835ZM16.0166 11.7097C13.638 11.7097 11.7097 13.638 11.7097 16.0166C11.7097 18.3952 13.638 20.3235 16.0166 20.3235C18.3952 20.3235 20.3235 18.3952 20.3235 16.0166C20.3235 13.638 18.3952 11.7097 16.0166 11.7097ZM16.0166 13.2209C17.5606 13.2209 18.8123 14.4726 18.8123 16.0166C18.8123 17.5606 17.5606 18.8123 16.0166 18.8123C14.4726 18.8123 13.2209 17.5606 13.2209 16.0166C13.2209 14.4726 14.4726 13.2209 16.0166 13.2209ZM20.4565 10.5124C19.9055 10.5124 19.4588 10.9591 19.4588 11.5102C19.4588 12.0612 19.9055 12.5079 20.4565 12.5079C21.0076 12.5079 21.4542 12.0612 21.4542 11.5102C21.4542 10.9591 21.0076 10.5124 20.4565 10.5124Z" fill="black"/>
</g>
<defs>
<clipPath id="clip0_2137_28194">
<rect width="32" height="32" fill="white"/>
</clipPath>
</defs>
</svg>
